offer/images/campaign.svg

<svg height="53" viewBox="0 0 51 53" width="51" xmlns="http://www.w3.org/2000/svg"><g fill="none" fill-rule="evenodd"><path d="m8.5 35.0818603h30.6v17h-30.6z" fill="#239172"/><path d="m14.45 38.4818603h18.7v.85c0 .9350831.764917 1.7 1.7 1.7h.85v5.1h-.85c-.935083 0-1.7.764917-1.7 1.7v.85h-18.7v-.85c0-.935083-.764917-1.7-1.7-1.7h-.85v-5.1h.85c.935083 0 1.7-.7649169 1.7-1.7z" fill="#2ab793"/><path d="m5.1 12.9818603h13.6c.935083 0 1.7.764917 1.7 1.7v8.5c0 .9350831-.764917 1.7-1.7 1.7h-13.6c-.93508298 0-1.7-.7649169-1.7-1.7v-8.5c0-.935083.76491702-1.7 1.7-1.7z" fill="#e2514d"/><path d="m11.05 16.3818603v5.1l3.4-2.55z" fill="#fff"/><g fill="#239172" transform="translate(45.05 35.025)"><path d="m0 .05686033h1.7v16.99999997h-1.7z"/><path d="m3.4.05686033h1.7v16.99999997h-1.7z"/></g><path d="m5.95 46.9818603c-3.31491702 0-5.95-2.635083-5.95-5.95v-7.65c0-3.3149169 2.63508298-5.95 5.95-5.95h16.15v1.7h-16.15c-2.37983404 0-4.25 1.8701661-4.25 4.25v7.65c0 2.3798341 1.87016596 4.25 4.25 4.25z" fill="#d6d7d8"/><g fill="#fff"><path d="m25.5 43.5818603c0 .9388184-.7611816 1.7-1.7 1.7s-1.7-.7611816-1.7-1.7c0-.9388183.7611816-1.7 1.7-1.7s1.7.7611817 1.7 1.7z"/><path d="m28.05 42.7318603h2.55v1.7h-2.55z"/><path d="m17 42.7318603h2.55v1.7h-2.55z"/></g><path d="m45.9 8.73186032h-1.7v1.69999998h1.7c1.870166 0 3.4 1.5298341 3.4 3.4v10.2c0 1.8701661-1.529834 3.4-3.4 3.4h-3.4v1.7h3.4c2.804834 0 5.1-2.2951659 5.1-5.1v-10.2c0-2.8048339-2.295166-5.09999998-5.1-5.09999998z" fill="#d6d7d8"/><path d="m41.65 35.0818603h1.7v17h-1.7z" fill="#239172"/><path d="m39.6046835 20.3671878v11.4921909c0 .1924992-.0673745.3609357-.202124.5053099-.1347494.1443743-.3079985.2165614-.5197473.2165614h-3.2917331v-5.0242242h1.6747414l.2598737-1.934615h-1.9346151v-1.2416187c0-.3272481.0577497-.5582469.1732491-.6929964.1539991-.1732491.4138728-.2598737.779621-.2598737h1.0394947v-1.7613659c-.4042479-.0384997-.9047452-.0577497-1.5014923-.0577497-.7507461 0-1.357118.221374-1.8191156.6641216-.4619977.4427476-.6929965 1.0779943-.6929965 1.9057402v1.4437426h-1.6747414v1.934615h1.6747414v5.0242242h-6.1792182c-.2117488 0-.3849979-.0721871-.5197473-.2165614-.1347495-.1443742-.202124-.3128107-.202124-.5053099v-11.4921909c0-.2117488.0673745-.3849979.202124-.5197473.1347494-.1347495.3079985-.202124.5197473-.202124h11.4921909c.1924992 0 .3609357.0673745.5053099.202124.1443743.1347494.2165614.3079985.2165614.5197473z" fill="#0067b1"/><path d="m40.3073201 3.31426458c.0208986.08327838.0313477.21860533.0313477.40598133 0 1.49900799-.3657227 2.94596693-1.0971677 4.34087729-.7523435 1.47818827-1.8077145 2.6544933-3.1661124 3.5289146-1.4837884.978519-3.1870109 1.4677787-5.1096665 1.4677787-1.8390621 0-3.5213855-.4892597-5.0469712-1.4677787.2298826.0208198.4911133.0312294.7836912.0312294 1.5255856 0 2.8944326-.46844 4.1065418-1.40532-.731445 0-1.3740717-.2134003-1.9278803-.64020134-.5538086-.42680105-.9352047-.96290428-1.1441892-1.60831066.2089845.02081972.4075195.03122934.5956053.03122934.2925779 0 .5851563-.03122934.8777342-.093688-.7523436-.16655629-1.3792965-.55171838-1.8808589-1.15548532-.5015623-.60376695-.7523435-1.29081228-.7523435-2.06113599v-.06245866c.4597656.27065438.9508785.41639095 1.4733394.43721066-.438867-.31229333-.7941402-.70786504-1.06582-1.18671465-.2716798-.47884962-.4075194-1.00454371-.4075194-1.57708132 0-.57253762.1567382-1.11905094.4702147-1.63953999.8150388 1.02015837 1.8129388 1.83212103 2.9937003 2.43588798 1.1807616.60376695 2.4398918.93687999 3.7773915.99933866-.0417967-.24983467-.0626953-.49966933-.0626953-.749504 0-.58294771.1462892-1.12946103.4388671-1.63953998s.6896482-.91085571 1.1912106-1.20232932c.5015624-.29147362 1.0449214-.43721067 1.6300777-.43721067.4806637 0 .9247556.093688 1.332275.281064s.7680173.43721067 1.0814938.74950399c.7523435-.14573704 1.4524408-.40598132 2.1002924-.78073332-.2507812.77032371-.731445 1.37409065-1.4419918 1.81130132.6269529-.08327838 1.2539059-.26024429 1.8808588-.53089867-.4597656.66622562-1.0135737 1.23876371-1.6614253 1.71761332z" fill="#0093e2"/></g></svg>

<?xml version="1.0" encoding="UTF-8"?>
<svg width="51px" height="53px" viewBox="0 0 51 53" version="1.1" xmlns="http://www.w3.org/2000/svg" xmlns:xlink="http://www.w3.org/1999/xlink">
    <!-- Generator: Sketch 52.2 (67145) - http://www.bohemiancoding.com/sketch -->
    <title>campaign</title>
    <desc>Created with Sketch.</desc>
    <g id="Page-1" stroke="none" stroke-width="1" fill="none" fill-rule="evenodd">
        <g id="offer" transform="translate(-150.000000, -8020.000000)">
            <g id="campaign" transform="translate(150.000000, 8020.000000)">
                <polygon id="Path" fill="#239172" points="8.5 35.0818603 39.1 35.0818603 39.1 52.0818603 8.5 52.0818603"></polygon>
                <path d="M14.45,38.4818603 L33.15,38.4818603 L33.15,39.3318603 C33.15,40.2669434 33.914917,41.0318603 34.85,41.0318603 L35.7,41.0318603 L35.7,46.1318603 L34.85,46.1318603 C33.914917,46.1318603 33.15,46.8967773 33.15,47.8318603 L33.15,48.6818603 L14.45,48.6818603 L14.45,47.8318603 C14.45,46.8967773 13.685083,46.1318603 12.75,46.1318603 L11.9,46.1318603 L11.9,41.0318603 L12.75,41.0318603 C13.685083,41.0318603 14.45,40.2669434 14.45,39.3318603 L14.45,38.4818603 Z" id="Path" fill="#2AB793"></path>
                <path d="M5.1,12.9818603 L18.7,12.9818603 C19.635083,12.9818603 20.4,13.7467773 20.4,14.6818603 L20.4,23.1818603 C20.4,24.1169434 19.635083,24.8818603 18.7,24.8818603 L5.1,24.8818603 C4.16491702,24.8818603 3.4,24.1169434 3.4,23.1818603 L3.4,14.6818603 C3.4,13.7467773 4.16491702,12.9818603 5.1,12.9818603 Z" id="Path" fill="#E2514D"></path>
                <polygon id="Path" fill="#FFFFFF" points="11.05 16.3818603 11.05 21.4818603 14.45 18.9318603"></polygon>
                <g id="Group" transform="translate(45.050000, 35.025000)" fill="#239172">
                    <polygon id="Path" points="0 0.056860325 1.7 0.056860325 1.7 17.0568603 0 17.0568603"></polygon>
                    <polygon id="Path" points="3.4 0.056860325 5.1 0.056860325 5.1 17.0568603 3.4 17.0568603"></polygon>
                </g>
                <path d="M5.95,46.9818603 C2.63508298,46.9818603 0,44.3467773 0,41.0318603 L0,33.3818603 C0,30.0669434 2.63508298,27.4318603 5.95,27.4318603 L22.1,27.4318603 L22.1,29.1318603 L5.95,29.1318603 C3.57016596,29.1318603 1.7,31.0020264 1.7,33.3818603 L1.7,41.0318603 C1.7,43.4116944 3.57016596,45.2818603 5.95,45.2818603 L5.95,46.9818603 Z" id="Path" fill="#D6D7D8"></path>
                <path d="M25.5,43.5818603 C25.5,44.5206787 24.7388184,45.2818603 23.8,45.2818603 C22.8611816,45.2818603 22.1,44.5206787 22.1,43.5818603 C22.1,42.643042 22.8611816,41.8818603 23.8,41.8818603 C24.7388184,41.8818603 25.5,42.643042 25.5,43.5818603 Z" id="Path" fill="#FFFFFF"></path>
                <polygon id="Path" fill="#FFFFFF" points="28.05 42.7318603 30.6 42.7318603 30.6 44.4318603 28.05 44.4318603"></polygon>
                <polygon id="Path" fill="#FFFFFF" points="17 42.7318603 19.55 42.7318603 19.55 44.4318603 17 44.4318603"></polygon>
                <path d="M45.9,8.73186032 L44.2,8.73186032 L44.2,10.4318603 L45.9,10.4318603 C47.770166,10.4318603 49.3,11.9616944 49.3,13.8318603 L49.3,24.0318603 C49.3,25.9020264 47.770166,27.4318603 45.9,27.4318603 L42.5,27.4318603 L42.5,29.1318603 L45.9,29.1318603 C48.704834,29.1318603 51,26.8366944 51,24.0318603 L51,13.8318603 C51,11.0270264 48.704834,8.73186032 45.9,8.73186032 Z" id="Path" fill="#D6D7D8"></path>
                <polygon id="Path" fill="#239172" points="41.65 35.0818603 43.35 35.0818603 43.35 52.0818603 41.65 52.0818603"></polygon>
                <path d="M39.6046835,20.3671878 L39.6046835,31.8593787 C39.6046835,32.0518779 39.537309,32.2203144 39.4025595,32.3646886 C39.2678101,32.5090629 39.094561,32.58125 38.8828122,32.58125 L35.5910791,32.58125 L35.5910791,27.5570258 L37.2658205,27.5570258 L37.5256942,25.6224108 L35.5910791,25.6224108 L35.5910791,24.3807921 C35.5910791,24.053544 35.6488288,23.8225452 35.7643282,23.6877957 C35.9183273,23.5145466 36.178201,23.427922 36.5439492,23.427922 L37.5834439,23.427922 L37.5834439,21.6665561 C37.179196,21.6280564 36.6786987,21.6088064 36.0819516,21.6088064 C35.3312055,21.6088064 34.7248336,21.8301804 34.262836,22.272928 C33.8008383,22.7156756 33.5698395,23.3509223 33.5698395,24.1786682 L33.5698395,25.6224108 L31.8950981,25.6224108 L31.8950981,27.5570258 L33.5698395,27.5570258 L33.5698395,32.58125 L27.3906213,32.58125 C27.1788725,32.58125 27.0056234,32.5090629 26.870874,32.3646886 C26.7361245,32.2203144 26.66875,32.0518779 26.66875,31.8593787 L26.66875,20.3671878 C26.66875,20.155439 26.7361245,19.9821899 26.870874,19.8474405 C27.0056234,19.712691 27.1788725,19.6453165 27.3906213,19.6453165 L38.8828122,19.6453165 C39.0753114,19.6453165 39.2437479,19.712691 39.3881221,19.8474405 C39.5324964,19.9821899 39.6046835,20.155439 39.6046835,20.3671878 Z" id="facebook" fill="#0067B1"></path>
                <path d="M40.3073201,3.31426458 C40.3282187,3.39754296 40.3386678,3.53286991 40.3386678,3.72024591 C40.3386678,5.2192539 39.9729451,6.66621284 39.2415001,8.0611232 C38.4891566,9.53931147 37.4337856,10.7156165 36.0753877,11.5900378 C34.5915993,12.5685568 32.8883768,13.0578165 30.9657212,13.0578165 C29.1266591,13.0578165 27.4443357,12.5685568 25.91875,11.5900378 C26.1486326,11.6108576 26.4098633,11.6212672 26.7024412,11.6212672 C28.2280268,11.6212672 29.5968738,11.1528272 30.808983,10.2159472 C30.077538,10.2159472 29.4349113,10.0025469 28.8811027,9.57574586 C28.3272941,9.14894481 27.945898,8.61284158 27.7369135,7.9674352 C27.945898,7.98825492 28.144433,7.99866454 28.3325188,7.99866454 C28.6250967,7.99866454 28.9176751,7.9674352 29.210253,7.90497654 C28.4579094,7.73842025 27.8309565,7.35325816 27.3293941,6.74949122 C26.8278318,6.14572427 26.5770506,5.45867894 26.5770506,4.68835523 L26.5770506,4.62589657 C27.0368162,4.89655095 27.5279291,5.04228752 28.05039,5.06310723 C27.611523,4.7508139 27.2562498,4.35524219 26.98457,3.87639258 C26.7128902,3.39754296 26.5770506,2.87184887 26.5770506,2.29931126 C26.5770506,1.72677364 26.7337888,1.18026032 27.0472653,0.659771272 C27.8623041,1.67992964 28.8602041,2.4918923 30.0409656,3.09565925 C31.2217272,3.6994262 32.4808574,4.03253924 33.8183571,4.09499791 C33.7765604,3.84516324 33.7556618,3.59532858 33.7556618,3.34549391 C33.7556618,2.7625462 33.901951,2.21603288 34.1945289,1.70595393 C34.4871068,1.19587498 34.8841771,0.795098223 35.3857395,0.503624607 C35.8873019,0.212150991 36.4306609,0.0664139446 37.0158172,0.0664139446 C37.4964809,0.0664139446 37.9405728,0.160101944 38.3480922,0.347477942 C38.7556116,0.53485394 39.1161095,0.784688605 39.429586,1.09698193 C40.1819295,0.951244889 40.8820268,0.691000605 41.5298784,0.316248609 C41.2790972,1.08657232 40.7984334,1.69033926 40.0878866,2.12754993 C40.7148395,2.04427155 41.3417925,1.86730564 41.9687454,1.59665126 C41.5089798,2.26287688 40.9551717,2.83541497 40.3073201,3.31426458 Z" id="twitter" fill="#0093E2"></path>
            </g>
        </g>
    </g>
</svg>
